!!!OTL: O ICH BETRUEBTER FREIERSMANN
!!!ARE: Europa, Mitteleuropa, Deutschland
!!!SCT: F0802
!!!YEM: Copyright 1995, estate of Helmut Schaffrath.
**kern
*ICvox
*Ivox
*M4/4
*k[]
*C:
{4G
=1
4.c
8c
4c
4c
=2
4.e
8e
4e}
{4e
=3
4.g
8d
4d
8c
8d
=4
4e
4r}
{2g
=5
4f
4e
4d
4c
=6
4.B
8E
4E}
{4e
=7
4e
4e
4.e
8d#
=8
2e
4r}
{4B
=9
4.B
8B
4B
4c#
=10
4.d
8d
4d}
{4f
=11
4a
4g
4f
4e
=12
4.d
8d
4d}
{4G
=13
4.g
8e
4.d
8f
=14
2e
4r}
==
!!!AGN: Geselligkeits - Lied, national
!!!ONB: ESAC (Essen Associative Code) Database: FINK
!!!AMT: simple quadruple
!!!AIN: vox
!!!EED: Helmut Schaffrath
!!!EEV: 1.0
*-
